packages/ffe-icons/icons/filled/lg/nest_detect.svg

<svg xmlns="http://www.w3.org/2000/svg" height="40" viewBox="0 -960 960 960" width="40"><path d="M375.061-90q-51.932 0-88.496-36.612-36.564-36.612-36.564-88.516v-592.308q0-25.608 18.477-44.086 18.478-18.477 44.086-18.477h125.128q25.609 0 44.086 18.477 18.478 18.478 18.478 44.086v592.308q0 51.904-36.632 88.516-36.631 36.611-88.563 36.611Zm-.011-50.256q31.079 0 53.015-21.857 21.936-21.858 21.936-52.937 0-31.078-21.858-53.015-21.858-21.936-52.936-21.936-31.079 0-53.015 21.858t-21.936 52.936q0 31.079 21.857 53.015 21.858 21.936 52.937 21.936Zm297.514-109.745q-25.608 0-44.086-18.477-18.477-18.478-18.477-44.086v-334.872q0-25.608 18.477-44.086 18.478-18.477 44.086-18.477h54.872q25.608 0 44.086 18.477 18.477 18.478 18.477 44.086v334.872q0 25.608-18.477 44.086-18.478 18.477-44.086 18.477h-54.872Z"/></svg>

<svg xmlns="http://www.w3.org/2000/svg" viewBox="0 -960 960 960" width="32" height="32"><path d="M375.06-90q-51.93 0-88.5-36.61Q250-163.22 250-215.13v-592.31q0-25.6 18.48-44.08Q286.96-870 312.56-870h125.13q25.61 0 44.09 18.48 18.48 18.48 18.48 44.08v592.31q0 51.91-36.64 88.52Q426.99-90 375.06-90Zm-.01-50.26q31.08 0 53.01-21.85Q450-183.97 450-215.05t-21.86-53.01Q406.29-290 375.21-290t-53.02 21.86q-21.93 21.85-21.93 52.93t21.85 53.02q21.86 21.93 52.94 21.93ZM672.56-250q-25.6 0-44.08-18.48Q610-286.96 610-312.56v-334.88q0-25.6 18.48-44.08Q646.96-710 672.56-710h54.88q25.6 0 44.08 18.48Q790-673.04 790-647.44v334.88q0 25.6-18.48 44.08Q753.04-250 727.44-250h-54.88Z"/></svg>
